X:113 
T:Sean Ryan's (B) (reel)
B:MFC.051b
S:B.Mulvihill
F:file ID mfc/113sryan2
Z:bill@capeirish.com
N:Low Cs in mm 1 and 5 are not shown as C naturals.
Q:180
L:1/8
M:4/4
R:reel
K:Dm
D2ED CA,~A,2|FEFG A=BcA|d2ed cA~A2|cAGE CEGE|
D2ED CA,~A,2|FEFG A=BcA|d2ed cA~A2|cAGE EDD2:|
K:D
d2fd adfd|gAfA edBc|dDcD BDAF|GEFD EB,~B,2|
d2fd adfd|gAfA edBc|dDcD BDAF|GBAG FDCE:|\
"last time"D4z4|]

